X:123
T:Princess Caroline’s Waltz. WM.123
M:3/8
L:1/8
Q:3/8=50
S:Wm.Mittell’s MS, New Romney,Kent,1799
R:.Waltz
O:England
A:Kent
N:WM.124 not in MS.
Z:vmp.Chris Partington
K:F
A/B/|ccf|ddB|G{=B}c/d/c/_B/|AFc|ffa|gec|Ad=B|c3:|!
|:_eA/c/e/f/|_ed B/c/|dB/c/d/=e/|dc~e|fed|cBA|AB/A/G/F/|FE A/B/|!
ccf|ddB|G{=B}c/d/c/_B/|AFc|ffa|dba|gfe|f3:|

